X: 20002
T: Jim Small's Father's
R: waltz
M: 3/4
K: Gmajor
Bc|d2 Bd g2|f2A2e2|d3 e dc|B4de|
d2A2B2|c2f2e2|d3 e dc|B4Bc|
d2 Bd g2|f2A2e2|d3 e dc|B4G2|
A2B2c2|d2e2f2|g3 gg2|g2g2gg||
f2A2B2|c2f2e2|d3 e dc|B4de|
d2A2B2|c2f2e2|d3 e dc|B4Bc|
d2 Bd g2|f2A2e2|d3 e dc|B4G2|
A2B2c2|d2e2f2|g3 gg2|g4||

